X:1
T:Madonn'io t'haggi'
T:Madonn'io t'haggi'
T:Francesco Corteccia
T:Source : Canzone villanesche a 4 voci---Venetia---A.Gardano---1545. Editor : André Vierendeels (06/11/14).
C:Francesco Corteccia
%%score [ 1 [ 2 3 ] 4 ]
L:1/8
Q:1/4=85
M:4/4
K:F
V:1 treble nm="Cantus" snm="C"
V:2 treble-8 nm="Tenor 1" snm="T 1"
V:3 treble-8 nm="Tenor 2" snm="T 2"
V:4 bass nm="Bassus" snm="B"
V:1
 A4 d2 d2 | c2 B2 A2 G2 | A2 c2 A4 | G8 | z4 A4 | G2 F2 E2 D2 | E2 F2 E2 C2 | D4 C4 |: %8
w: Ma- don- n'io|t'hag- gi'a- ma- t'et|a- mo as-|sat,|et|mai- non mi vo-|le- sti con- so-|la- re,|
 z2 G2 G2 A2 | B2 A2 G4 | F4 z2 G2 |"^-natural" E4 z2 G2 | E4 C4 | z2 c2 A4 | z2 c2 A4 | %15
w: et sem- pre|d'og- g'in cra-|i, cra|cra cra|cra cra|cra ca|cra cra|
 F2 F2 B2 A2 | G2 F2 G4 | A4 z2 F2 | G2 A2 B2 A2 | G2 A2 B2 c2 |1 A4 G4 :|2 A4 G4- || G8 |] %23
w: cra cra cra fa|la cor- na-|chia, et|al- le pe- ne|mia fi- ne non|sac- chia,|sac- chia.|_|
V:2
 f4 f2 f2 | f2 d2 f2 d2 |"^#" f2 g4 f2 | g8 | z4 c4 | c2 A2 A2 A2 | c2 c2 c2 c2- | %7
w: Ma- don- n'io|t'hag- gi'a- ma- t'et|a- mo as-|sat,|et|mai non mi vo-|le- sti con- so-|
"^-natural" c2 B2 c4 |: z2 d2 d2 f2 | d2 d4 c2 | d4 z2 d2 | c2 g4 d2 | z2 c2 f4 | z2 e2 f4 | %14
w: * la- re,|et sem- pre|d'og- g'in cra-|i, cra|cra cra cra|cra cra|cra cra|
 z2 e2 f4 | z2 d2 f2 f2 | e2 f4 e2 | f4 z2 c2 | e2 e2 f2 f2 | d2 f2 g2 g2- |1"^#" g2 f2 g4 :|2 %21
w: cra cra|cra cra fa|la cor- na-|chia, et|al- le pe- ne|mia fi- ne non|_ sac- chia,|
"^#" g2 f2 g4- || g8 |] %23
w: (non)- sac- chia.|_|
V:3
 c4 B2 B2 | A2 B2 d2 B2 |"^b" c2 e2 d4 | d8 | z4 f4 | e2 d2 c2 F2 | G2 A2 G2 C2 | G4 G4 |: %8
w: Ma- don- n'io|t'hag- gi'a- ma- t'et|a- mo as-|sat,|et|mai non mi vo-|le- sti con- so-|la- re,|
 z2 B2 B2 c2 | B2 F2 G4 | A4 z2 B2 | G2 c2 B4 | z2 G2 F2 A2 | G4 z2 A2 | G4 z2 A2 | B2 A2 d2 c2 | %16
w: et sem- pre|d'og- g'in cra-|i, cra|cra cra cra|cra cra cra|cra cra|cra cra|cra cra cra fa|
 c2 A2 c4 | c4 z2 A2 | c2 c2 d2 c2 |"^b" B2 d2 d2 e2 |1 d4 d4 :|2 d4 d4- || d8 |] %23
w: la cor- na-|chia, et|al- le pe- ne|mia fi- ne non|sac- chia,|sac- chia.|_|
V:4
 F,4 B,,2 B,,2 | F,2 G,2 D,2 G,2 | F,2 C,2 D,4 | G,8 | z4 F,4 | C,2 D,2 A,,2 D,2 | %6
w: Ma- don- n'io|t'hag- gi'a- ma- t'et|a- mo as-|sat,|et|mai non mi vo-|
 C,2 F,,2 C,2 A,,2 | G,,4 C,4 |: z2 G,2 G,2 F,2 | G,2 D,2 _E,4 | D,4 z2 G,2 | C,2 C,2 G,,4 | %12
w: le- sti con- so-|la- re,|et sem- pre|d'og- g'in cra-|i, cra|cra cra cra|
 z2 C,2 F,,2 F,2 | C,4 z2 F,2 | C,4 z2 F,2 | B,,2 D,2 B,,2 F,2 | C,2 D,2 C,4 | F,4 z2 F,2 | %18
w: cra cra cra|cra cra|cra cra|cra cra cra fa|la cor- na-|chia, et|
 C,2 C,2 B,,2 F,2 | G,2 D,2 G,2 C,2 |1 D,4 G,,4 :|2 D,4 G,,4- || G,,8 |] %23
w: al- le pe- ne|mia fi- ne non|sac- chia,|sac- chia.|_|

